!!!!SEGMENT: pl-kk--kk-i-8--038_anonim--dilexisti-justitiam.krn
!!!cenid: 16xx:1179
!!!COM: Anonim
!!!COM-rismID: pe30004985
!!!CDT:
!!!CNT:
!!!OTL: Dilexisti justitiam
!!!PDT:
!!!AGN: Sacred
!!!SMS-siglum: PL-Kk
!!!SMS-shelfmark: Kk.I.8
!!!SMS-shelfwork: 038 W
!!!SMS-variant:
!!!SMS-altvar:
!!!NIFC-rismSourceID: 1001148105
!!!NIFC-rismChildID: 1001149266
!!!NIFC-islandoraID: pl-kk:2296
!!!URL-pdf-islandora: https://repozytorium.nifc.pl/islandora/object/pl-kk%3A2296/datastream/PDF/view
!!!URL-scan: https://polish.musicsources.pl/pl/lokalizacje/galeria/rekopisy/6141 @EN{Scan on Polish Music Sources Website} @PL{Skany w portalu Dziedzictwo Muzyki Polskiej w otwartym dostępie}
!!!ONB-nifc: UWAGA: A (brak), T1 (skan 0039-0040), T2 (0062-0063), B (0085-0086).
!!!AIN: 1 bass 2 tenor
!!!key:
**kern	**text	**kern	**text	**kern	**text
*part3	*part3	*part2	*part2	*part1	*part1
*staff3	*staff3	*staff2	*staff2	*staff1	*staff1
*Ibass	*	*Itenor	*	*Itenor	*
*I"BASSVS.	*	*I"TENOR zdus	*	*I"Tenore 1mo	*
*I'B.	*	*I'T2	*	*I'T1	*
*clefF4	*	*clefC1	*	*clefC4	*
*k[]	*	*k[]	*	*k[]	*
*G:	*	*G:	*	*G:	*
*M2/1	*	*M2/1	*	*M2/1	*
*met(C)	*	*met(C)	*	*met(C)	*
=1-	=1-	=1-	=1-	=1-	=1-
*2\right	*	*2\right	*	*2\right	*
!	!	!LO:TX:t=P:all\right:problem	!	!LO:TX:t=P:all\right:problem	!
2.A\	Di-	2.a\	Di-	2.c\	Di-
4A\	-le-	4a\	-le-	4c\	-le-
2A\	-xi-	2a\	-xi-	2c\	-xi-
4G#X\	-sti	4b\	-sti	4B\	-sti
!	!	!	!	!LO:TX:t=P:problem=# above	!
4A\	iu-	4a\	iu-	4c#X\	iu-
=2-	=2-	=2-	=2-	=2-	=2-
4.D/	-ſti-	4.a\	-ſti-	4.d\	-ſti-
8D/	-ti-	8a\	-ti-	8d\	-ti-
4AA/	-am	4a\	-am	4c#X\	-am
8.A\	et	8cc\	et	4r	.
.	.	8b\	o-	.	.
16G\	o-	.	.	.	.
4F#X\	-di-	4a\	-di-	4r	.
4F#\	-ſti	4a\	-ſti	8d\	et
.	.	.	.	8c#\	o-
*	*ij	*	*ij	*	*
4.G\	et	4.b\	et	4B\	-di-
.	.	.	.	4B\	-sti
8F#\	o-	8a\	o-	.	.
=3-	=3-	=3-	=3-	=3-	=3-
4E\	-di-	4g\	-di-	4r	.
*	*	*	*	*	*ij
8E\	-ſti	8g\	-ſti	8c\	et
*	*Xij	*	*Xij	*	*
8E\	.	8g\	i-	8B\	o-
4.F\	i-	4.a\	-ni-	4A\	-di-
.	.	.	.	8A\	-sti
*	*	*	*	*	*Xij
8F\	-ni-	8a\	-qui-	8d\	i-
1G\	-qui-	1g\	-ta-	8B\	-ni-
.	.	.	.	8B\	-qui-
.	.	.	.	2c\	-ta-
.	.	.	.	4B\	.
=4-	=4-	=4-	=4-	=4-	=4-
2C/	-ta-	2g/	-tem	2c\	-tem
2c\	-tem	2g/	pro-	2c\	Pro-
2A\	Pro-	2.a\	-pte-	(2c\	-ptre-
4.B\	-pte-	.	.	4.d\)	.
.	.	4a\	-re-	.	.
*custos:c	*	*	*	*custos:G	*
8B\	-re-	.	.	8d\	-re-
!LO:LB:g=original	!	!	!	!LO:LB:g=original	!
=5-	=5-	=5-	=5-	=5-	=5-
4c\	-a	4g\	-a	4G/	-a
2G#X\	Un-	2b\	Un-	2B\	Un-
8G#\	-xit	8b\	-xit	8B\	-xit
*	*	*custos:a	*	*	*
8G#\	te	8b\	te	8e\	te
!	!	!LO:LB:g=original	!	!	!
2.A\	De-	2.a\	De-	4.c#X\	De-
.	.	.	.	8c#\	-us
.	.	.	.	4.d\	De-
4A\	-us	4a\	-us	.	.
.	.	.	.	8d\	-us
=6-	=6-	=6-	=6-	=6-	=6-
1A\	tu-	1a\	tu-	2d\	tu-
.	.	.	.	2c#X\	.
2.D/	-us	2.a\	-us	4d\	-us
.	.	.	.	4.d\	O-
.	.	.	.	8d\	-le-
4r	.	4r	.	8c#\	-o
.	.	.	.	8B\	lae-
=7-	=7-	=7-	=7-	=7-	=7-
0r	.	4.cc\	O-	2.A\	-ti-
.	.	8cc\	-le-	.	.
.	.	8b\	-o	.	.
.	.	8a\	lae-	.	.
.	.	4.g/	-ti-	4B\	.
.	.	.	.	2.c\	.
.	.	16g/	-ti-	.	.
.	.	16g/	-ae	.	.
*	*	*	*ij	*	*
.	.	8.ee\	O-	.	.
.	.	16ee\	-le-	.	.
.	.	8dd\	-o	.	.
.	.	8cc\	lae-	.	.
.	.	2.b\	-ti-	8c\L	.
.	.	.	.	8B\J	.
=8-	=8-	=8-	=8-	=8-	=8-
4.G\	O-	.	.	4A\	ti-
.	.	.	.	2G/	-ae
8G\	-le-	.	.	.	.
8F\	-o	8a\L	-ti-	.	.
8E\	lae-	8g\J	.	.	.
2.D/	-ti-	2.a\	-ae	2r	.
.	.	.	.	4r	.
*	*	*	*	*	*ij
4D/	-ti-	4a\	O-	4.f\	O-
4AA/	-ae	4a\	-le-	.	.
.	.	.	.	8f\	-le-
=9-	=9-	=9-	=9-	=9-	=9-
*	*ij	*	*	*	*
4.A\	O-	4.cc\	-o	8e\	-o
.	.	.	.	8d\	lae-
.	.	.	.	2.c\	-ti-
8A\	-le-	8cc\	lae-	.	.
8G\	-o	8b\	-ti-	.	.
8F\	lae-	8a\	-ti-	.	.
2.E\	-ti-	2.g\	-ae	.	.
!	!	!	!	!LO:N:vis=4	!
.	.	.	.	8c\	-ti-
*	*	*	*	*custos:e	*
!	!	!	!	!LO:N:vis=4	!
.	.	.	.	8c\	-ae
*	*	*	*Xij	*	*
!	!	!	!	!LO:LB:g=original	!
.	.	.	.	4.e\	O-
4F#X\	-ti-	4a\	prae	.	.
.	.	.	.	8e\	-le-
4G\	-ae/	4b\	.	8d\	-o
*	*Xij	*	*	*	*
.	.	.	.	8c\	lae-
=10-	=10-	=10-	=10-	=10-	=10-
4G\	prae	8b\	con-	4.B\	-ti-
.	.	8a\	.	.	.
!	!	!LO:LB:g=original	!	!	!
8G\	.	4g/	-for-	.	.
!LO:N:acc=-	!	!	!	!	!
8Fn\	con-	.	.	8B\	-ti-
4E\	-for-	8g/	-ti-	4e\	-ae
*	*	*	*	*	*Xij
.	.	8cc\	-bus	.	.
8E\	-ti-	8a\L	tu-	8e\	prae
8E\	-bus	8b\J	.	8e\	con-
!LO:LB:g=original	!	!	!	!	!
2F\	tu-	2.cc\	.	4d\	-ſor-
.	.	.	.	8d\	-ti-
.	.	.	.	8d\	-bus
2G\	.	.	.	2d\	tu-
.	.	4b\	.	.	.
=11-	=11-	=11-	=11-	=11-	=11-
*M3/1	*	*M3/1	*	*M3/1	*
1C/	-is	1cc\	-is	1e\	-is
1c\	Gau-	1cc\	Gau-	1e\	Gau-
1G\	-de-	1b\	-de-	1d\	-de-
=12-	=12-	=12-	=12-	=12-	=12-
0C/	-a-	0cc\	-a-	0e\	-a-
1C/	-mus	1cc\	-mus	1e\	-mus
=13-	=13-	=13-	=13-	=13-	=13-
*	*ij	*	*ij	*	*ij
0G\	Gau-	0b\	Gau-	0d\	Gau-
1D\	-de-	1a\	-de-	1d\	-de-
=14-	=14-	=14-	=14-	=14-	=14-
1G\	-a-	1b\	-a-	1d\	-a-
1G\	-mus	1b\	-mus	1d\	-mus
*	*Xij	*	*Xij	*	*Xij
1G\	et	1b\	et	1d\	et
=15-	=15-	=15-	=15-	=15-	=15-
1.D\	e-	1.dd\	e-	1.f\	e-
2D\	.	4cc\	.	2e\	.
.	.	4b\	.	.	.
1F\	-xul-	1a\	-xul-	1d\	-xul-
=16-	=16-	=16-	=16-	=16-	=16-
1G\	-te-	1b\	-te-	1d\	-te-
*	*	*	*	*lig	*
0A\	-mus	0a\	-mus	1d\	.
*	*	*	*	*custos:d	*
!	!	!	!	!LO:TX:t=P:problem=# below	!
.	.	.	.	1c#X\	.
*	*	*	*	*Xlig	*
!	!	!	!	!LO:LB:g=original	!
=17-	=17-	=17-	=17-	=17-	=17-
0D\	.	0a\	.	0d\	-mus
1D\	et	1a\	et	1d\	et
=18-	=18-	=18-	=18-	=18-	=18-
0G\	de-	0b\	de-	0d\	de-
1F#X\	-mus	1a\	-m(us)	1d\	-mus
=19-	=19-	=19-	=19-	=19-	=19-
1.G\	.	1.b\	glo-	1.d\	glo-
2F\	glo-	2b\	-ri-	2B\	-ri-
1E\	-ri-	1b\	-am	(2c\	-am.
.	.	.	.	2d\)	.
!	!	!LO:LB:g=original	!	!	!
=20-	=20-	=20-	=20-	=20-	=20-
1E\	-am	0.b\	De-	0e\	De-
*custos:E	*	*	*	*	*
0B\	De-	.	.	.	.
.	.	.	.	1d#X\	-o
!LO:LB:g=original	!	!	!	!	!
=21-	=21-	=21-	=21-	=21-	=21-
1E\	-o	1g#X\	-o	1e\	.
1E\	gau-	1g#\	Gau-	1B\	gau-
1E\	-de-	1g#\	-de-	1B\	-de-
=22-	=22-	=22-	=22-	=22-	=22-
1A\	-a-	1a\	-a-	1c#X\	-a-
1A\	-mus	1a\	-mus	1c#\	-mus
1A\	et	1a\	et	1c#\	et
=23-	=23-	=23-	=23-	=23-	=23-
0D\	e-	0a\	e-	0d\	e-
1D\	-xul-	1a\	-xul-	1d\	-xul-
=24-	=24-	=24-	=24-	=24-	=24-
1G\	-te-	1b\	-te-	1d\	-te-
1G\	-mus	1b\	-mus	1d\	-mus
*	*ij	*	*ij	*	*ij
1G\	et	1b\	et	1d\	et
=25-	=25-	=25-	=25-	=25-	=25-
0D\	e-	0a\	e-	0d\	e-
1D\	-xul-	1a\	-xul-	1d\	-xul-
=26-	=26-	=26-	=26-	=26-	=26-
1A\	-te-	1a\	-te-	1c\	-te-
1A\	-mus	1a\	-mus	1c\	-mus
*	*Xij	*	*Xij	*	*Xij
1A\	et	1a\	et	1c\	et
=27-	=27-	=27-	=27-	=27-	=27-
0E\	de-	0b\	de-	0e\	de-
*	*	*	*	*custos:c	*
1E\	-mus	1b\	-m(us)	1e\	-mus
!	!	!	!	!LO:LB:g=original	!
=28-	=28-	=28-	=28-	=28-	=28-
1.F\	glo-	1.a\	glo-	1.c\	glo-
2E\	-ri-	2b\	-ri-	2G#X/	-ri-
1D\	-am	1dd\	-am	1A\	-am
=29-	=29-	=29-	=29-	=29-	=29-
1G\	De-	1cc\	De-	0A\	De-
0E\	.	0b\	.	.	.
.	.	.	.	1G#X/	.
=30-	=30-	=30-	=30-	=30-	=30-
*M2/1	*	*M2/1	*	*M2/1	*
*met(c)	*	*met(c)	*	*met(c)	*
4AA/	-o	4a\	-o	4A\	-o
2F\	Qui-	2a\	Qui-	2c\	Qui-
*	*	*custos:a	*	*	*
4E\	-a	4g/	-a	4c\	-a
!	!	!LO:LB:g=original	!	!	!
2.F\	ho-	(2.a\	ho-	2.c\	ho-
*custos:C	*	*	*	*	*
4F\	-di-	8g/)	-di-	4c\	-di-
.	.	8f/	-e	.	.
!LO:LB:g=original	!	!	!	!	!
=31-	=31-	=31-	=31-	=31-	=31-
4C/	-e	4g\	Ca-	2c\	-e
8c\	Ca-	8cc\	.	.	.
8c\	-tha-	8cc\	-tha-	.	.
(8.A\	-ri-	(8.cc\	-ri-	4r	.
16A\)	.	16cc\)	.	.	.
(8A\	-na	(8cc\	-na	8f#X\	Ca-
8A\)	.	8cc\)	.	8f#\	-tha-
4B\	Vir-	4b\	Vir-	(8.d\	-ri-
.	.	.	.	16d\)	.
8B\	-go	8b\	-go	(8d\	-na
8A\	et	8b\	et	8d\)	.
4.G#X\	Mar-	4.b\	Mar-	4e\	Vir-
.	.	.	.	8e\	-go
(16G#\	-tyr	(16b\	-tyr	8d\	et
16G#\)	.	16b\)	.	.	.
=32-	=32-	=32-	=32-	=32-	=32-
4A\	ſpon-	4a\	ſpon-	4.c\	Mar-
8A\	-ſa	8a\	-sa	.	.
8G\	fi-	8a\	fi-	16c\	.
.	.	.	.	16c\	-tyr
4F#X\	-de-	4a\	-de-	4d\	ſpon-
8F#\	-lis	8a\	-lis	8d\	-sna
8F#\	ad	8a\	ad	8c\	fi-
4.G\	nup-	4b\	nup-	4B\	-de-
.	.	8b\	-ti-	8c\	-lis
*	*	*	*	*custos:e	*
16G\	-ti-	8a\	-as	8d\	ad
16F#\	-as	.	.	.	.
!	!	!	!	!LO:LB:g=original	!
4E\	a-	4g/	a-	4.e\	nup-
8E\	-gni	8g/	-gni	.	.
8E\	cae-	8g/	cae-	16e\	-ti-
.	.	.	.	16d\	-as
=33-	=33-	=33-	=33-	=33-	=33-
4A\	-le-	4cc\	-le-	4c\	a-
8A\	-ſtis	8cc\	-ſtis	8c\	-gni
*custos:A	*	*custos:cc	*	*	*
8G\	vo-	8b\	Vo-	8e\	vo-
!LO:LB:g=original	!	!LO:LB:g=original	!	!	!
8A\L	-ca-	(4cc\	-ca-	4.e\	-ca-
16G\L	.	.	.	.	.
16A\JJ	.	.	.	.	.
8B\	.	8.b\)	.	.	.
8BB/	-ta	.	.	8d#X\	-ta
.	.	16b\	-ta	.	.
2E\	eſt	4b\	eſt	4e\	eſt
.	.	8b\	Ca-	8e\	Ca-
.	.	8b\	-tha-	8e\	-tha-
2r	.	(8.cc#X\	-ri-	(8.c#X\	-ri-
.	.	16cc#\)	.	16c#\)	.
.	.	(8cc#\	-na	(8c#\	-na
.	.	8cc#\)	.	8c#\)	.
=34-	=34-	=34-	=34-	=34-	=34-
00r	.	4a\	Vir-	4d\	Vir-
.	.	8a\	-go	8d\	-go
.	.	8a\	et	8c\	et
.	.	4.b\	Mar-	4.B\	Mar-
.	.	16b\	-tyr	(16B\	-tyr
.	.	16b\	.	16B\)	.
.	.	4g\	ſpon-	4c\	ſpon-
.	.	8g\	.	8c\	.
.	.	8g\	-ſa	8B\	-sa
.	.	4a\	fi-	4A/	fi-
.	.	8a\	-de-	8A/	-de-
.	.	8a\	-lis	8A/	-lis
=35-	=35-	=35-	=35-	=35-	=35-
.	.	4.a\	ad	4.d\	ad
.	.	16b\	nu-	16d\	nu-
.	.	16cc\	-ptis	16c\	-ptis
.	.	4dd\	a-	4B\	a-
.	.	8cc\	-gni	8c\	-gni
.	.	8b\	cae-	8d\	cae-
!	!	!	!	!LO:LB:g=original	!
.	.	4b\	-les-	4e\	-les-
.	.	8a\	-tis	8f\	-tis
*	*	*custos:b	*	*	*
.	.	8cc\	vo-	8e\	Vo-
!	!	!LO:LB:g=original	!	!	!
.	.	4.b\	-ca-	8d\L	-ca-
.	.	.	.	16c\L	.
.	.	.	.	16d\JJ	.
.	.	.	.	4.e\	.
.	.	8b\	-ta	.	.
=36-	=36-	=36-	=36-	=36-	=36-
2r	.	2a\	eſt	.	.
.	.	.	.	8e\	-ta
.	.	.	.	2A/	eſt
2F\	Vo-	2cc\	Vo-	.	.
.	.	.	.	2A/	Vo-
4.D\	-ca-	4dd\	-ca-	.	.
!	!	!	!	!LO:N:vis=2.	!
.	.	8cc\L	.	2A/	-ca-
16C\LL	.	8dd\J	.	.	.
16D\JJ	.	.	.	.	.
4.E\	.	4.b\	.	.	.
.	.	.	.	4G#X/	-ta
8E\	-ta	8b\	-ta	.	.
=37-	=37-	=37-	=37-	=37-	=37-
4AA/	eſt	4a\	eſt	2A/	eſt
8A\	e-	8a\	e-	.	.
8A\	-gre-	8a\	-gre-	.	.
4.A\	-di-	4.cc\	-di-	4r	.
.	.	.	.	8c\	e-
8A\	-mi-	8b\	-mi-	8c\	-gre-
4A\	-ni	4a\	-ni	4.e\	-di-
*	*ij	*	*ij	*	*
8A\	e-	8a\	e-	.	.
8A\	-gre-	8a\	-gre-	8d\	-mi-
4.A\	-di-	4.cc\	-di-	4c\	-ni
*	*	*	*	*	*ij
.	.	.	.	8c\	e-
8A\	-mi-	8b\	-mi-	8c\	-gre-
=38-	=38-	=38-	=38-	=38-	=38-
2A\	-ni	2a\	-ni	4.e\	-di-
*	*Xij	*	*Xij	*	*
.	.	.	.	8d\	-mi-
4r	.	4r	.	4c\	-ni
*	*	*	*	*	*Xij
4.A\	fi-	4.a\	fi-	4.c\	fi-
8A\	-li-	8a\	-li-	8c\	-li-
8D\	-ae	8g/	-ae	8c\	-ae
8E\	Je-	8g/	Je-	8c\	Je-
4F\	-ru-	4a\	-ru-	4.c\	-ru-
8.G\	-sa-	8.g/	.	.	.
.	.	.	-sa-	8B\	-sa-
16G\	.	16g/	.	.	.
!LO:LB:g=original	!	!	!	!	!
=39-	=39-	=39-	=39-	=39-	=39-
*	*	*custos:g	*	*	*
4C/	-lem	2g/	-lem	4c\	-lem
8c\	e-	.	.	8c\	e-
*	*	*	*	*custos:e	*
8c\	-gre-	.	.	8c\	-gre-
!	!	!LO:PB:g=original	!	!LO:LB:g=original	!
4.c\	-di-	4r	.	4.e\	-di-
.	.	8g/	e-	.	.
8c\	-mi-	8g/	-gre-	8d\	-mi-
4C/	-ni	4.g/	-di-	4c\	-ni
*	*ij	*	*	*	*ij
8c\	e-	.	.	8c\	e-
8c\	-gre-	8g/	-mi-	8c\	-gre-
4.c\	-di-	4g/	-ni	4.e\	-di-
*	*	*	*ij	*	*
.	.	8g/	e-	.	.
8c\	-mi-	8g/	-gre-	8d\	-mi-
=40-	=40-	=40-	=40-	=40-	=40-
2c\	-ni	4.g/	-di-	2c\	-ni
*	*Xij	*	*	*	*Xij
.	.	8g/	-mi-	.	.
4r	.	4g/	-ni	4r	.
*	*	*	*Xij	*	*
4.c\	fi-	4.g/	fi-	4.c\	fi-
8c\	-li-	8g/	-li-	8c\	-li-
8G\	-ae	8b\	-ae	8B\	-ae
8G\	Je-	8b\	Je-	8B\	Je-
(4A\	-ru-	8.a\L	-ru-	4c\	-ru-
.	.	16g\Jk	.	.	.
!	!	!LO:TX:t=P:problem=# above	!	!	!
8.B\)	.	8.f#X/	.	8.B\	.
16B\	-ſa-	16f#/	-sa-	16B\	-sa-
=41-	=41-	=41-	=41-	=41-	=41-
*M3/1	*	*M3/1	*	*M3/1	*
0E\	-lem	0g#X\	-lem	0B\	-lem
!	!	!LO:N:acc=-	!	!	!
1E\	Ve-	1gn\	Ve-	1c\	Ve-
=42-	=42-	=42-	=42-	=42-	=42-
1G\	-ni-	1g\	-ni-	1B\	-ni-
1G\	-te	1g\	-te	1B\	-te
1E\	Vi-	1g#X\	Ve-	1e\	Ve-
=43-	=43-	=43-	=43-	=43-	=43-
1A\	-de-	1a\	-ni-	1c#X\	-ni-
1A\	-te	1a\	-te	1d\	-te
*	*	*custos:g	*	*	*
*	*ij	*	*	*	*
1F\	Vi-	1a\	vi-	1e\	Vi-
!	!	!LO:LB:g=original	!	!	!
=44-	=44-	=44-	=44-	=44-	=44-
1G\	-de-	1g\	-de-	1B\	-de-
1G\	-te	1g\	-te	1c\	-te
*	*Xij	*	*	*	*
2F\	Ca-	2a\	Ca-	2d\	Ca-
*	*	*	*	*custos:e	*
2F\	-tha-	2a\	-tha-	2d\	-tha-
!LO:LB:g=original	!	!	!	!LO:PB:g=original	!
=45-	=45-	=45-	=45-	=45-	=45-
*	*	*	*	*lig	*
0E\	-ri-	0b\	-ri-	1e\	-ri-
.	.	.	.	1d\	.
*	*	*	*	*Xlig	*
1A\	-nam	1a\	-nam	1c#X\	-nam
=46-	=46-	=46-	=46-	=46-	=46-
1F\	de-	0.a\	de-	0d\	de-
0A\	-ſtram	.	.	.	.
.	.	.	.	1c#X\	-ſtram
=47-	=47-	=47-	=47-	=47-	=47-
0D\	.	0a\	-ſtram	0d\	in
1D\	in	1a\	in	1d\	.
=48-	=48-	=48-	=48-	=48-	=48-
0G\	Di-	0g\	Di-	1.B\	Di-
.	.	.	.	2G/	.
1G\	-a-	1g\	-a-	(2A/	-a-
.	.	.	.	2B/)	.
=49-	=49-	=49-	=49-	=49-	=49-
1.C/	-de-	1.g\	-de-	1.c\	-de-
2C/	-ma-	2g/	-ma-	2c\	-ma-
1C/	-te	1g\	-te	1c\	-te
=50-	=50-	=50-	=50-	=50-	=50-
0.r	.	0.r	.	1A\	quo
.	.	.	.	(2B\	co-
.	.	.	.	2A\)	.
.	.	.	.	(2B\	-ro-
.	.	.	.	2c\)	.
=51-	=51-	=51-	=51-	=51-	=51-
1D\	quo	1f#X/	quo	0d\	-na-
(2E\	co-	(2g/	co-	.	.
2D\)	.	2f#/)	.	.	.
(2E\	-ro-	(2g/	-ro-	1d\	-uit
2F\)	.	2a/)	.	.	.
=52-	=52-	=52-	=52-	=52-	=52-
0G\	-na-	0b\	-na-	1B\	quo
.	.	.	.	(2c\	Co-
.	.	.	.	2B\)	.
1F\	-uit	1a\	-uit	(2c\	-ro-
*	*	*	*	*custos:e	*
.	.	.	.	2d\)	.
!	!	!	!	!LO:LB:g=original	!
=53-	=53-	=53-	=53-	=53-	=53-
*	*ij	*	*ij	*	*
1E\	quo	1g\	quo	0e\	-na-
(2F\	co-	(2a\	co-	.	.
2E\)	.	2g\)	.	.	.
(2F\	-ro-	(2a\	-ro-	1d\	-uit
*	*	*custos:cc	*	*	*
2G\)	.	2b\)	.	.	.
!	!	!LO:LB:g=original	!	!	!
=54-	=54-	=54-	=54-	=54-	=54-
1.A\	-na-	1.cc\	-na-	1.c\	e-
2A\	-uit	2cc\	-uit	2d\	-am
*	*Xij	*	*Xij	*	*
2E\	e-	2cc\	e-	1e\	ſpon-
*custos:F	*	*	*	*	*
2E\	-am	2g\	-am	.	.
!LO:PB:g=original	!	!	!	!	!
=55-	=55-	=55-	=55-	=55-	=55-
1.F\	ſpon-	1.a\	ſpon-	1c\	-ſus
*	*	*	*	*lig	*
.	.	.	.	1c\	e-
2F\	-ſus	2a\	-ſus	.	.
1G\	e-	1g\	e-	1B\	.
*	*	*	*	*Xlig	*
=56-	=56-	=56-	=56-	=56-	=56-
2C/	-i(us)	2g/	-i(us)	0.c\	-ius
2AA/	quo	2c/	quo	.	.
(2BB/	co-	(2d/	co-	.	.
2AA/)	.	2c/)	.	.	.
(2BB/	-ro-	(2d/	-ro-	.	.
2C/)	.	2e/)	.	.	.
=57-	=57-	=57-	=57-	=57-	=57-
0D\	-na-	0f#X/	-na-	1F#X/	quo
.	.	.	.	(2G/	Co-
.	.	.	.	2F#/)	.
1D\	-uit	1f#/	-uit	(2G/	-ro-
.	.	.	.	2A/)	.
=58-	=58-	=58-	=58-	=58-	=58-
1BB/	quo	1d/	.	0B\	-na-
*	*	*	*ij	*	*
(2C/	Co-	(2e/	co-	.	.
2BB/)	.	2d/)	.	.	.
(2C/	-ro-	(2e/	-ro-	1B\	-uit
2D/)	.	2f#X/)	.	.	.
=59-	=59-	=59-	=59-	=59-	=59-
0E\	-na-	0g#X\	-na-	1G/	.
*	*	*	*	*	*ij
.	.	.	.	(2A/	Co-
.	.	.	.	2G/)	.
1E\	-uit	1g#\	-uit	(2A/	-ro-
.	.	.	.	2B/)	.
=60-	=60-	=60-	=60-	=60-	=60-
*	*ij	*	*	*	*
1C/	quo	1e/	.	0c\	-na-
(2D/	Co-	(2f#X/	co-	.	.
2C/)	.	2e/)	.	.	.
(2D/	-ro-	(2f#/	-ro-	1B\	-uit
*	*	*	*	*	*Xij
*	*	*custos:a	*	*	*
2E/)	.	2g/)	.	.	.
!	!	!LO:LB:g=original	!	!	!
=61-	=61-	=61-	=61-	=61-	=61-
1.F\	-na-	1.a\	-na-	1.A\	e-
2F\	-uit	2a\	-uit	2B\	-am
*	*Xij	*	*Xij	*	*
*	*	*	*	*custos:d	*
2E\	e-	2g#X\	e-	1c\	ſpon-
*custos:D	*	*	*	*	*
2E\	-am	2g#\	-am	.	.
!LO:LB:g=original	!	!	!	!LO:LB:g=original	!
=62-	=62-	=62-	=62-	=62-	=62-
1.D\	ſpon-	1.a\	ſpon-	1d\	-ſus
.	.	.	.	0B\	e-
2D\	-ſus	2b\	-ſus	.	.
1E\	e-	1g#X\	e-	.	.
=63-	=63-	=63-	=63-	=63-	=63-
!LO:TX:t=P:problem=kreska pseudotaktowa	!	!LO:TX:t=P:problem=kreska pseudotaktowa	!	!LO:TX:t=P:problem=kreska pseudotaktowa	!
0.AA/	-ius	0.a\	-ius	0.A\	-ius
=64-	=64-	=64-	=64-	=64-	=64-
1.A\	ſpe-	1.a\	Spe-	1.c\	Spe-
2A\	-ci-	2a\	-ci-	2c\	-ci-
1E\	-e	1g#X\	-e	1B\	-e
=65-	=65-	=65-	=65-	=65-	=65-
0A\	tu-	0a\	tu-	0c\	tu-
1A\	-a	1a\	-a	1c\	-a
=66-	=66-	=66-	=66-	=66-	=66-
*	*ij	*	*ij	*	*ij
1.E\	ſpe-	1.b\	Spe-	1.e\	Spe-
2E\	-ci-	2b\	-ci-	2e\	-ci-
1BB/	-e	1b\	-e	1d#X\	-e
=67-	=67-	=67-	=67-	=67-	=67-
0E\	tu-	0b\	tu-	0e\	tu-
1E\	-a	1b\	-a	1e\	-a
*	*Xij	*	*Xij	*	*Xij
=68-	=68-	=68-	=68-	=68-	=68-
1C/	et	1cc\	et	1e\	et
1C/	pul-	1cc\	pul-	1e\	pul-
1BB/	-chri-	1dd\	-chri-	1d\	-chri-
=69-	=69-	=69-	=69-	=69-	=69-
1.C/	-tu-	1.cc\	-tu-	1.e\	-tu-
2D/	-di-	2cc\	-di-	2e\	-di-
*	*	*custos:cc	*	*	*
1E\	-ne	1b\	-ne	1B\	-ne
!	!	!LO:LB:g=original	!	!	!
=70-	=70-	=70-	=70-	=70-	=70-
1C/	tu-	2cc\	tu-	1e\	.
.	.	2b\	.	.	.
0D\	.	2a\	.	0d\	tu-
.	.	2g\	.	.	.
.	.	1a\	.	.	.
=71-	=71-	=71-	=71-	=71-	=71-
0GG/	-a	0b\	-a	0d\	-a
*	*	*	*	*custos:d	*
1G\	in-	1b\	in-	1d\	in-
!	!	!	!	!LO:LB:g=original	!
=72-	=72-	=72-	=72-	=72-	=72-
0D\	-ten-	0a\	-ten-	0d\	-ten-
*custos:A	*	*	*	*	*
1D\	-de	1a\	-de	1d\	-de
!LO:LB:g=original	!	!	!	!	!
=73-	=73-	=73-	=73-	=73-	=73-
1.A\	pro-	1.a\	pro-	1.c#X\	pro-
2A\	-ſpe-	2a\	-ſpe-	2c#\	-ſpe-
1A\	-re	1a\	-re	1d\	-re
=74-	=74-	=74-	=74-	=74-	=74-
1r	.	1r	.	1r	.
1r	.	1r	.	1r	.
!	!	!	!	!LO:N:acc=-	!
*	*Xij	*	*Xij	*	*Xij
1A\	in-	1a\	in-	1cn\	in-
=75-	=75-	=75-	=75-	=75-	=75-
0E\	-ten-	0b\	-ten-	0e\	-ten-
1E\	-de	1b\	-de	1e\	-de
=76-	=76-	=76-	=76-	=76-	=76-
1.A\	pro-	1.a\	pro-	1.c#X\	pro-
2A\	-ſpe-	2a\	-ſpe-	2c#\	-ſpe-
1A\	-re	1a\	-re	1c#\	-re
*	*Xij	*	*Xij	*	*Xij
=77-	=77-	=77-	=77-	=77-	=77-
1D\	pro-	1f#X/	pro-	1d\	pro-
(2D\	-ce-	(2f#/	-ce-	2d\	-ce-
2E\)	.	2g\)	.	(4c\	-de
.	.	.	.	4B\)	.
2F#X\	-de	2a\	-de	2A\	et
2F#\	et	2a\	et	2d\	.
=78-	=78-	=78-	=78-	=78-	=78-
1.G\	re-	1.b\	re-	0B\	re-
!LO:TX:t=P:problem=♭ above	!	!	!	!	!
!LO:N:acc=-	!	!	!	!	!
2Fn\	.	2a\	.	.	.
2E\	.	2g/	.	1B\	-gna
2D\	.	2f#X/	.	.	.
=79-	=79-	=79-	=79-	=79-	=79-
1C/	.	1g\	.	00.r	.
1C/	-gna	1g\	-gna	.	.
1r	.	1r	.	.	.
!	!	!LO:LB:g=original	!	!	!
=80-	=80-	=80-	=80-	=80-	=80-
(1G\	pro-	1b\	pro-	.	.
2G\)	.	(2b\	-ce-	.	.
2A\	-ce-	2cc\)	.	.	.
2B\	-de	2dd\	-de	.	.
2B\	et	2dd\	et	.	.
=81-	=81-	=81-	=81-	=81-	=81-
*	*	*	*	*	*ij
1.c\	re	1.ee\	re-	1c\	pro-
.	.	.	.	(2c\	-ce-
2B\	.	2dd\	.	2d\)	.
2A\	.	2cc\	.	2e\	-de
*custos:F	*	*	*	*	*
2G\	.	2b\	.	2e\	et
!LO:LB:g=original	!	!	!	!	!
=82-	=82-	=82-	=82-	=82-	=82-
!	!	!	!	!LO:N:acc=-	!
1F\	.	1a\	.	1.fn\	re-
1F\	.	1a\	-gna	.	.
.	.	.	.	2e\	.
1F\	et	1a\	et	2d\	.
.	.	.	.	2c\	.
=83-	=83-	=83-	=83-	=83-	=83-
1.G\	re-	1.b\	re-	1B\	.
.	.	.	.	1B\	-gna
2F\	.	2a\	.	.	.
2E\	.	2g\	.	1r	.
2D\	.	2f#X/	.	.	.
!	!	!	!	!LO:LB:g=original	!
=84-	=84-	=84-	=84-	=84-	=84-
1C/	-gna	1g\	.	1E/	pro-
1C/	.	1g\	-gna	(2E/	-ce-
.	.	.	.	2F/)	.
1r	.	1r	.	2G/	-de
.	.	.	.	2G/	et
=85-	=85-	=85-	=85-	=85-	=85-
1.AA/	pro-	0.r	.	1.A\	re-
2BB/	-ſpe-	.	.	2G/	.
1C#X/	-re	.	.	2F/	.
.	.	.	.	2E/	.
=86-	=86-	=86-	=86-	=86-	=86-
[1D\	pro-	1f#X/	por-	1D/	.
2D\]	.	(2f#/	-ce-	1D/	-gna
2E\	-ce-	2g/)	.	.	.
2F#X\	-de	2a\	-de	1r	.
2F#\	et	2a\	et	.	.
=87-	=87-	=87-	=87-	=87-	=87-
1.G\	re-	1.b\	.	1B\	pro-
.	.	.	.	(2B\	-ce-
2F\	.	2a\	re-	2c\)	.
2E\	.	2g/	.	2d\	-de
2D\	.	2f#X/	.	2d\	et
=88-	=88-	=88-	=88-	=88-	=88-
1.C/	.	1e/	.	1.e\	re-
.	.	1e/	-gna	.	.
2D/	.	.	.	2d\	.
2E/	.	1r	.	2c\	.
2C/	.	.	.	2B\	.
=89-	=89-	=89-	=89-	=89-	=89-
1.F\	.	1a\	pro-	1A\	.
.	.	(2a\	-ce-	1A\	-gna
*	*	*	*	*	*Xij
2G\	.	2b\)	.	.	.
2F\	.	2a\	-de	1A\	et
*custos:D	*	*	*	*	*
2E\	.	2g\	et	.	.
!LO:LB:g=original	!	!LO:LB:g=original	!	!	!
=90-	=90-	=90-	=90-	=90-	=90-
1.D\	.	0f#X/	re-	1.d\	re-
2E\	.	.	.	2c\	.
2F\	.	1f#/	-gna	2d\	.
2D\	.	.	.	2c\	.
=91-	=91-	=91-	=91-	=91-	=91-
1.G\	.	1g\	pro-	1.B\	.
.	.	1g\	-ce-	.	.
2G\	-gna	.	.	2c\	.
1F\	et	1a\	-de	2d\	.
.	.	.	.	2c\	.
!	!	!	!	!LO:LB:g=original	!
=92-	=92-	=92-	=92-	=92-	=92-
*lig	*	*	*	*lig	*
1G\	re-	1g\	et	1B\	.
*	*	*lig	*	*	*
1E\	.	1g\	re-	1e\	.
!	!	!	!	!LO:TX:t=P:problem=# below	!
1A\	.	1a\	.	1c#X\	.
*Xlig	*	*Xlig	*	*Xlig	*
=93-	=93-	=93-	=93-	=93-	=93-
0D\	-gna	0a\	-gna	0d\	-gna
1AA/	in-	1a\	pro-	1c#X\	in-
=94-	=94-	=94-	=94-	=94-	=94-
1.D\	-ten-	2a/	-ce-	1.d\	-ten-
.	.	2g/	.	.	.
.	.	2f/	.	.	.
2C/	.	2e/	.	2e\	.
2D/	.	2f/	.	2d\	.
2E/	.	2g/	.	4c\	.
.	.	.	.	4B\	.
=95-	=95-	=95-	=95-	=95-	=95-
0F\	.	0a\	.	0A\	-de
1C/	-de	1cc\	-de	1e\	pro-
=96-	=96-	=96-	=96-	=96-	=96-
1.D\	pro-	2a\	pro-	1.d\	.
.	.	2a\	-ſpe-	.	.
.	.	1a\	-re	.	.
2D/	-ſpe-	.	.	2d\	-ſpe-
1D\	-re	[>&[<2dd\	pro-	1d\	-re
.	.	2dd\]&]	.	.	.
=97-	=97-	=97-	=97-	=97-	=97-
1AA/	pro-	0cc\	-ce-	2e\	pro-
.	.	.	.	2d\	.
(2AA/	-ce-	.	.	2c\	.
2BB/)	.	.	.	2B\	.
2C/	-de	1cc\	-de	1A\	ce-
2D/	et	.	.	.	.
=98-	=98-	=98-	=98-	=98-	=98-
1.E\	.	1.b\	et	0G/	-de
2F\	re-	2a\	.	.	.
2E\	.	4b\	.	1G/	et
.	.	4cc\	.	.	.
*custos:C	*	*	*	*	*
2D\	.	4dd\	.	.	.
*	*	*custos:cc	*	*	*
.	.	4b\	.	.	.
!LO:LB:g=original	!	!LO:LB:g=original	!	!	!
=99-	=99-	=99-	=99-	=99-	=99-
1C/	.	1cc\	re-	1.G/	re-
1C/	-gna	1cc\	-gna	.	.
.	.	.	.	4A\	.
.	.	.	.	4B\	.
1C/	et	1cc\	et	1c\	.
=100-	=100-	=100-	=100-	=100-	=100-
1.G\	re-	1.b\	.	(0d\	-gna
2A\	.	2cc\	re-	.	.
*	*	*	*	*custos:e	*
2G\	.	2b\	.	1d\)	.
2F\	.	2a\	.	.	.
!	!	!	!	!LO:LB:g=original	!
=101-	=101-	=101-	=101-	=101-	=101-
1E\	.	1g\	-gna	1e\	pro-
1C/	-gna	1cc\	.	(2e\	-ce-
.	.	.	.	2d\)	.
1F\	et	1a\	et-	1c\	-de
=102-	=102-	=102-	=102-	=102-	=102-
1D\	re-	2dd\	-re-	1f\	et
.	.	2cc\	.	.	.
0E\	.	0b\	.	0e\	re-
=103-	=103-	=103-	=103-	=103-	=103-
0AA/	-gna	0a\	-gna	0e\	-gna
1AA/	et	1a\	et-	1e\	et
=104-	=104-	=104-	=104-	=104-	=104-
*M2/1	*	*M2/1	*	*M2/1	*
*met(c)	*	*met(c)	*	*met(c)	*
0D\	re-	0a\	-re-	4f\	re-
.	.	.	.	4e\	.
.	.	.	.	4d\	.
.	.	.	.	4c#X\	.
.	.	.	.	1d\	.
=105-	=105-	=105-	=105-	=105-	=105-
00AA/;;	-gna	00a\;;	-gna	00c#X\;;	-gna
=-	=-	=-	=-	=-	=-
*-	*-	*-	*-	*-	*-
!!!system-decoration: [(s1,s2,s3)]
!!!RDF**kern: > = above
!!!RDF**kern: < = below
!!!EED: Leszek Kubiak
!!!EEV: 2021-04-07
!!!ENC: Anastazja Marusiak
!!!END: 2021-03-29
!!!YEC: Copyright 2022 Narodowy Instytut Fryderyka Chopina (https://polishscores.org)
!!!YEM: License CC-BY-4.0 (https://creativecommons.org/licenses/by/4.0)
